!!!COM:	Martini, Johannes
!!!CDT:	~1440///-~1497//
!!!OTL:	Confitebor tibi
!!!AGN:	Motet
!!!SCT:	Mar2013
!!!SCA:	Mar2013
!!!voices:	2
**kern	**kern
*staff2	*staff1
*Ivox	*Ivox
*I"Tenor	*I"Superius
*I'T	*I'S
*>[A,B,C,D,E,F,G,H,I,J,K,L]	*>[A,B,C,D,E,F,G,H,I,J,K,L]
*>A	*>A
*clefGv2	*clefG2
*k[b-]	*k[b-]
*M2/1	*M2/1
*met(C)	*met(C)
=1-	=1-
!!LO:TX:Z=8:t=Choir 1
!!section: In consilio justorum
!!!OMD: In consilio justorum
1G	1g
1B-	1g
=2	=2
2B-\	2g/
2B-\	2g/
1B-	1g
=3	=3
2A/	2f/
2B-\	2g/
1c	1a
=4	=4
1A	1a
2c\	2a/
2B-\	2g/
=5	=5
2A/	2f/
2G/	1g
2B-\	.
2A/	[2f/
=6	=6
1G	2f/]
.	2e/
1Fl	1fl
=7||	=7||
*>B	*>B
!!section: Magna opera Domini
!!!OMD: Magna opera Domini
!!LO:TX:Z=8:t=Choir 2
1G	1g
2B-\	2g/
2B-\	2g/
=8	=8
2c\	2a/
1d	1b-
2c\	[2a/
=9	=9
1B-	2a/]
.	2g/
1A	1a
=10	=10
1r	1r
1B-	1g
=11	=11
2B-\	2g/
2B-\	2g/
2B-\	2g/
2B-\	2g/
=12	=12
1B-	1g
1G	1g
=13	=13
2B-\	2g/
2B-\	2g/
1c	1a
=14	=14
2A/	2a/
1B-	1g
2A/	[2f/
=15	=15
1G	2f/]
.	2e/
1Fl	1fl
=16||	=16||
*>C	*>C
!!section: Confessio
!!!OMD: Confessio
!!LO:TX:Z=8:t=Choir 1
1G	1g
2B-\	2g/
2B-\	2g/
=17	=17
1B-	1g
2B-\	2g/
2B-\	2g/
=18	=18
2B-\	2g/
2B-\	2g/
2B-\	2g/
2B-\	2g/
=19	=19
1B-	2g/
.	1b-
2d\	.
2c\	[2a/
=20	=20
1B-	2a/]
.	2g/
1A	1a
=21	=21
1r	1r
2B-\	2g/
2B-\	2g/
=22	=22
2B-\	2g/
2B-\	2g/
2B-\	2g/
2B-\	2g/
=23	=23
1G	1g
1B-	1g
=24	=24
2B-\	2g/
2B-\	2g/
1c	1a
=25	=25
2c\	2a/
2B-\	2g/
2A/	2f/
[2B-\	[2g/
=26	=26
2B-\]	2g/]
2c\	1f
1G	.
.	2e/
=27	=27
0Fl	0fl
=28||	=28||
*>D	*>D
!!section: Memoriam fecit
!!!OMD: Memoriam fecit
!!LO:TX:Z=8:t=Choir 2
1G	1g
2B-\	2g/
2B-\	2g/
=29	=29
2B-\	2g/
2B-\	2g/
1B-	1g
=30	=30
2B-\	2g/
2B-\	2g/
2B-\	2g/
2B-\	2g/
=31	=31
2B-\	2g/
2B-\	2g/
1B-	1g
=32	=32
1A	1f
1r	1r
=33	=33
1B-	1g
2B-\	2g/
2B-\	2g/
=34	=34
1B-	1g
2B-\	2g/
2B-\	2g/
=35	=35
2G/	2g/
2B-\	2g/
2c\	2a/
[2d\	[2b-\
=36	=36
2d\]	2b-\]
2c\	1a
1B-	.
.	2g/
=37	=37
1A	1a
1r	1r
=38	=38
1B-	1g
2B-\	2g/
2B-\	2g/
=39	=39
1B-	1g
2.A/	1a
4B-\	.
=40	=40
1c	2a/
.	1g
2B-\	.
2A/	[2f/
=41	=41
1G	2f/]
.	2e/
1Fl	1fl
=42||	=42||
*>E	*>E
!!section: Memor erit
!!!OMD: Memor erit
!!LO:TX:Z=8:t=Choir 1
1G	1g
2B-\	2g/
2B-\	2g/
=43	=43
1B-	1g
1G	2r
.	2g/
=44	=44
2B-\	2g/
2B-\	2g/
1B-	1g
=45	=45
2B-\	2g/
2c\	2a/
2d\	2b-\
2A/	[2a/
=46	=46
1B-	2a/]
.	2g/
1A	1a
=47	=47
1r	1r
2B-\	2g/
2B-\	2g/
=48	=48
1B-	1g
1B-	1g
=49	=49
2B-\	2g/
2B-\	2g/
2B-\	2g/
2B-\	2g/
=50	=50
1B-	1g
1G	2r
.	2g/
=51	=51
2B-\	2g/
2B-\	2g/
1B-	1g
=52	=52
1B-	1g
2.A/	1a
4B-\	.
=53	=53
1c	2a/
.	1g
2B-\	.
2A/	[2f/
=54	=54
1G	2f/]
.	2e/
1Fl	1fl
=55||	=55||
*>F	*>F
!!section: Ut det illis
!!!OMD: Ut det illis
!!LO:TX:Z=8:t=Choir 2
1G	1g
2B-\	2g/
2B-\	2g/
=56	=56
1B-	1g
2B-\	2g/
2B-\	2g/
=57	=57
1B-	2g/
.	2g/
2c\	2a/
[2d\	[2b-\
=58	=58
2d\]	2b-\]
2c\	1a
1B-	.
.	2g/
=59	=59
1A	1a
1r	1r
=60	=60
2B-\	2g/
2B-\	2g/
1B-	1g
=61	=61
2B-\	2g/
2B-\	2g/
2B-\	2g/
2B-\	2g/
=62	=62
1G	1g
2B-\	2g/
2B-\	2g/
=63	=63
1B-	1g
2.A/	1a
4B-\	.
=64	=64
1c	2a/
.	1g
2B-\	.
2A/	[2f/
=65	=65
1G	2f/]
.	2e/
1Fl	1fl
=66||	=66||
*>G	*>G
!!section: Fidelia omnia
!!!OMD: Fidelia omnia
!!LO:TX:Z=8:t=Choir 1
1G	1g
2B-\	2g/
2B-\	2g/
=67	=67
1B-	1g
2B-\	2g/
2B-\	2g/
=68	=68
1B-	1g
1B-	1g
=69	=69
2B-\	2g/
2B-\	2g/
1B-	1g
=70	=70
1A	1f
1r	1r
=71	=71
1G	1g
2B-\	2g/
2B-\	2g/
=72	=72
1B-	1g
2B-\	2g/
2B-\	2g/
=73	=73
2c\	2a/
1d	1b-
2c\	[2a/
=74	=74
1B-	2a/]
.	2g/
1A	1a
=75	=75
1r	1r
2B-\	2g/
2B-\	2g/
=76	=76
2B-\	2g/
2B-\	2g/
2B-\	2g/
2B-\	2g/
=77	=77
1B-	1g
2.A/	1a
4B-\	.
=78	=78
1c	2a/
.	1g
2B-\	.
2A/	[2f/
=79	=79
1G	2f/]
.	2e/
1Fl	1fl
=80||	=80||
*>H	*>H
!!LO:TX:Z=8:t=Choir 2
!!section: Redemptionem
!!!OMD: Redemptionem
2G/	2g/
2G/	2g/
2B-\	2g/
2B-\	2g/
=81	=81
1B-	1g
2B-\	2g/
2B-\	2g/
=82	=82
2B-\	2g/
2B-\	2g/
1B-	1g
=83	=83
1B-	1b-
2c\	2a/
2A/	[2a/
=84	=84
1B-	2a/]
.	2g/
1A	1a
=85	=85
1r	1r
2B-\	2g/
2B-\	2g/
=86	=86
2B-\	2g/
2B-\	2g/
2B-\	2g/
2B-\	2g/
=87	=87
1G	1g
1B-	1g
=88	=88
2.A/	1a
4B-\	.
1c	2a/
.	[2g/
=89	=89
2B-\	2g/]
2A/	1f
1G	.
.	2e/
=90	=90
0Fl	0fl
=91||	=91||
*>I	*>I
!!section: Sanctum et terribile
!!!OMD: Sanctum et terribile
!!LO:TX:Z=8:t=Choir 1
2G/	2g/
2G/	2g/
2B-\	2g/
2B-\	2g/
=92	=92
2B-\	2g/
2B-\	2g/
1B-	1g
=93	=93
2d\	2b-\
2c\	1a
1B-	.
.	2g/
=94	=94
1A	1a
1r	1r
=95	=95
1B-	1g
2B-\	2g/
2B-\	2g/
=96	=96
1B-	1g
2B-\	2g/
2B-\	2g/
=97	=97
2B-\	2g/
2B-\	2g/
1B-	1g
=98	=98
2.A/	1a
4B-\	.
1c	2a/
.	[2g/
=99	=99
2B-\	2g/]
2A/	1f
1G	.
.	2e/
=100	=100
0Fl	0fl
=101||	=101||
*>J	*>J
!!section: Intellectus bonus
!!!OMD: Intellectus bonus
!!LO:TX:Z=8:t=Choir 2
2G/	2g/
2G/	2g/
1B-	1g
=102	=102
1B-	1g
2B-\	2g/
2B-\	2g/
=103	=103
2B-\	2g/
2B-\	2g/
1G	1g
=104	=104
2B-\	2g/
2c\	2a/
1d	1b-
=105	=105
2c\	2a/
2A/	1a
1B-	.
.	2g/
=106	=106
1A	1a
1r	1r
=107	=107
1B-	1g
2B-\	2g/
2B-\	2g/
=108	=108
2B-\	2g/
2B-\	2g/
1G	1g
=109	=109
1B-	2g/
.	2g/
2B-\	1g
2B-\	.
=110	=110
2.A/	1a
4B-\	.
1c	2a/
.	[2g/
=111	=111
2B-\	2g/]
2A/	1f
1G	.
.	2e/
=112	=112
0Fl	0fl
=113||	=113||
*>K	*>K
!!LO:TX:Z=8:t=Choir 1
!!section: Gloria Patri
!!!OMD: Gloria Patri
1G	1g
2B-\	2g/
2B-\	2g/
=114	=114
1B-	1g
2c\	2a/
[2d\	[2b-\
=115	=115
2d\]	2b-\]
2c\	1a
1B-	.
.	2g/
=116	=116
1A	1a
1r	1r
=117	=117
1B-	1g
2B-\	2g/
2B-\	2g/
=118	=118
2.A/	1a
4B-\	.
1c	2a/
.	[2g/
=119	=119
2B-\	2g/]
2A/	1f
1G	.
.	2e/
=120	=120
0Fl	0fl
=121||	=121||
*>L	*>L
!!section: Sicut erat
!!!OMD: Sicut erat
1G	1g
2B-\	2g/
2B-\	2g/
=122	=122
1B-	1g
2B-\	2g/
2B-\	2g/
=123	=123
2B-\	2g/
2B-\	2g/
1G	1g
=124	=124
2B-\	2g/
2c\	2a/
2d\	2b-\
2A/	[2a/
=125	=125
1B-	2a/]
.	2g/
1A	1a
=126	=126
1r	1r
2B-\	2g/
2B-\	2g/
=127	=127
2B-\	2g/
2B-\	2g/
1G	1g
=128	=128
2B-\	2g/
2B-\	2g/
1c	1a
=129	=129
2B-\	2.g/
2G/	.
.	4e/
2F/	2f/
[2B-\	[2g/
=130	=130
2B-\]	2g/]
2A/	1f
1G	.
.	2e/
=131	=131
0Fl	0fl
==	==
*-	*-
!!!RDF**kern: l=long note in original notation
!!!ENC:	Chris Gage 01-27-2014
!!!END:	2014/10/06/
!!!EED:	Jesse Rodin
!!!EEV:	2014/10/16/
!!!ONB:	Translated from MusicXML and edited on 2014/10/16/ by Craig Sapp
!!muse2ps: C^@{COM}^i2I150v85,150Q16
